X:1
T: Miss G. Gordon of Banff
C:William Marshall
R:Reel
Q: 232
K:Bb
M:4/4
L:1/8
B2 FB DB FB|c2 Fc Ac Fc|dB fB gf ed|AB cd cA GF|
B2 FB DB FB|c2 Fc Ac Fc|dB fB gf ed|FB Ac B2 B2|
|:de fg fb ag|gf ed ed cB|Af cf df cf|=eg bg fe dc|
fc af gc bg|ad gf f=e dc|fa gb af cB|AG F=E F2 F2:|
B2 FB DB FB|c2 Fc Ac Fc|dB fB gf ed|AB cd cA GF|
B2 FB DB FB|c2 Fc Ac Fc|dB fB gf ed|FB Ac B2 B2||
